packages/core/src/svgs/tokens/mono/USDX.svg

<svg width="24" height="24" viewBox="0 0 24 24" fill="none" xmlns="http://www.w3.org/2000/svg">
<path fill-rule="evenodd" clip-rule="evenodd" d="M11.1521 6.375C14.377 6.375 17.0001 9.10124 17.0001 12.4525C17.0001 15.8031 14.377 18.2499 11.1521 18.2499H10.1283V15.7499H11.1521C12.9996 15.7499 14.5027 14.38 14.5027 12.4525C14.5027 10.5244 12.9996 8.87498 11.1527 8.87498H5.12524V19.5H2.62524V6.375H11.1521Z" fill="white"/>
<path fill-rule="evenodd" clip-rule="evenodd" d="M11.6413 2C17.0086 2 21.3749 6.4856 21.3749 11.9999C21.3749 17.5137 17.0086 22 11.6413 22H6.375V10.125H8.87496V19.5H11.6413C15.6455 19.5 18.875 16.1225 18.875 11.9999C18.875 7.87747 15.6455 4.49998 11.6413 4.49998H5.75V2H11.6413Z" fill="white"/>
</svg>

<svg xmlns="http://www.w3.org/2000/svg" width="24" height="24" fill="none" viewBox="0 0 24 24">
    <path fill="#fff" fill-rule="evenodd" d="M11.152 6.375c3.225 0 5.848 2.726 5.848 6.078 0 3.35-2.623 5.797-5.848 5.797h-1.024v-2.5h1.024c1.848 0 3.35-1.37 3.35-3.297 0-1.929-1.502-3.578-3.35-3.578H5.126V19.5h-2.5V6.375z" clip-rule="evenodd"/>
    <path fill="#fff" fill-rule="evenodd" d="M11.641 2c5.368 0 9.734 4.486 9.734 10s-4.366 10-9.734 10H6.375V10.125h2.5V19.5h2.766c4.005 0 7.234-3.378 7.234-7.5 0-4.123-3.23-7.5-7.234-7.5H5.75V2z" clip-rule="evenodd"/>
</svg>
